X: 44
T:Hunsup. HA.043
M:6/4
Q:120
C:The Hunt Is Up
S:Henry Atkinson's original MS,Hartburn,N'umberland,1694.
R:Jigg
O:England
A:Hartburn,Northumberland
N:Most of the notes preceding the quavers are shown as plain crotchets
N:but the intention seems clear for them to be dotted.CGP
H:1/4
Z:vmp.Chris Partington.Jan.2004
K:G
G2d B>cd|G2d B>cd|c>dc B>cB|A>BA F>ED|!
G2d B>cd|G2d B>cd|cgc BgB|A3-A2A|!
c>de edc|B>cd dcB|(AB)G AF2|G3-G2|]
